packages/icons/src/arrow-right-from-line.svg

<svg width="24" height="24" viewBox="0 0 24 24" fill="none" xmlns="http://www.w3.org/2000/svg">
<path d="M15.325 16.275C15.1417 16.0583 15.05 15.8125 15.05 15.5375C15.05 15.2625 15.1417 15.0333 15.325 14.85L17.175 13H10C9.71667 13 9.47917 12.9042 9.2875 12.7125C9.09583 12.5208 9 12.2833 9 12C9 11.7167 9.09583 11.4792 9.2875 11.2875C9.47917 11.0958 9.71667 11 10 11H17.175L15.325 9.15C15.125 8.95 15.025 8.7125 15.025 8.4375C15.025 8.1625 15.125 7.925 15.325 7.725C15.5083 7.525 15.7375 7.425 16.0125 7.425C16.2875 7.425 16.5167 7.51667 16.7 7.7L20.3 11.3C20.4 11.4 20.4708 11.5083 20.5125 11.625C20.5542 11.7417 20.575 11.8667 20.575 12C20.575 12.1333 20.5542 12.2583 20.5125 12.375C20.4708 12.4917 20.4 12.6 20.3 12.7L16.7 16.3C16.4833 16.5167 16.2458 16.6125 15.9875 16.5875C15.7292 16.5625 15.5083 16.4583 15.325 16.275ZM5 21C4.45 21 3.97917 20.8042 3.5875 20.4125C3.19583 20.0208 3 19.55 3 19V5C3 4.45 3.19583 3.97917 3.5875 3.5875C3.97917 3.19583 4.45 3 5 3H11C11.2833 3 11.5208 3.09583 11.7125 3.2875C11.9042 3.47917 12 3.71667 12 4C12 4.28333 11.9042 4.52083 11.7125 4.7125C11.5208 4.90417 11.2833 5 11 5H5V19H11C11.2833 19 11.5208 19.0958 11.7125 19.2875C11.9042 19.4792 12 19.7167 12 20C12 20.2833 11.9042 20.5208 11.7125 20.7125C11.5208 20.9042 11.2833 21 11 21H5Z" fill="black"/>
</svg>

<svg xmlns="http://www.w3.org/2000/svg" width="24" height="24" fill="none" viewBox="0 0 24 24">
  <path fill="#000" d="M15.325 16.275a1.11 1.11 0 0 1-.275-.737c0-.276.092-.505.275-.688l1.85-1.85H10a.967.967 0 0 1-.713-.287A.968.968 0 0 1 9 12c0-.283.096-.52.287-.713A.967.967 0 0 1 10 11h7.175l-1.85-1.85c-.2-.2-.3-.438-.3-.713 0-.274.1-.512.3-.712.183-.2.413-.3.688-.3.274 0 .504.092.687.275l3.6 3.6c.1.1.17.208.212.325.042.117.063.242.063.375s-.02.258-.063.375a.877.877 0 0 1-.212.325l-3.6 3.6c-.217.217-.454.313-.712.287a1.054 1.054 0 0 1-.663-.312ZM5 21c-.55 0-1.02-.196-1.413-.587A1.926 1.926 0 0 1 3 19V5c0-.55.196-1.02.587-1.413A1.926 1.926 0 0 1 5 3h6a.97.97 0 0 1 .713.288c.191.191.287.429.287.712s-.096.52-.287.713A.968.968 0 0 1 11 5H5v14h6a.97.97 0 0 1 .713.288c.191.191.287.429.287.712s-.096.52-.287.712A.968.968 0 0 1 11 21H5Z"/>
</svg>
